inst/assets/svg/wi-night-partly-cloudy.svg

<?xml version="1.0" encoding="UTF-8"?>
<svg xmlns="http://www.w3.org/2000/svg" xmlns:xlink="http://www.w3.org/1999/xlink" width="30pt" height="30pt" viewBox="0 0 30 30" version="1.1">
<g id="surface736">
<path style=" stroke:none;fill-rule:nonzero;fill:rgb(0%,0%,0%);fill-opacity:1;" d="M 6.769531 19.609375 C 6.769531 20.578125 7.121094 21.421875 7.828125 22.128906 C 8.539063 22.839844 9.378906 23.191406 10.351563 23.191406 L 17.199219 23.191406 C 18.171875 23.191406 19 22.839844 19.691406 22.140625 C 20.378906 21.441406 20.730469 20.601563 20.730469 19.609375 C 20.730469 19.128906 20.660156 18.71875 20.519531 18.378906 C 21.351563 17.851563 22.011719 17.140625 22.488281 16.261719 C 22.96875 15.378906 23.21875 14.429688 23.21875 13.421875 C 23.21875 12.609375 23.058594 11.828125 22.75 11.089844 C 22.429688 10.351563 22.011719 9.710938 21.46875 9.179688 C 20.929688 8.648438 20.300781 8.21875 19.558594 7.898438 C 18.820313 7.578125 18.050781 7.421875 17.238281 7.421875 C 16.148438 7.421875 15.140625 7.691406 14.21875 8.230469 C 13.300781 8.769531 12.570313 9.5 12.039063 10.410156 C 11.511719 11.328125 11.25 12.328125 11.25 13.421875 L 11.25 13.761719 C 10.238281 14.328125 9.578125 15.171875 9.261719 16.25 C 8.5 16.488281 7.898438 16.910156 7.449219 17.519531 C 7 18.128906 6.769531 18.828125 6.769531 19.609375 Z M 8.75 19.609375 C 8.75 19.191406 8.878906 18.828125 9.148438 18.53125 C 9.421875 18.230469 9.761719 18.058594 10.171875 18.019531 L 10.800781 17.941406 C 10.921875 17.941406 10.988281 17.859375 10.988281 17.710938 L 11.089844 17.148438 C 11.160156 16.570313 11.398438 16.089844 11.820313 15.710938 C 12.238281 15.320313 12.730469 15.128906 13.300781 15.128906 C 13.878906 15.128906 14.390625 15.320313 14.808594 15.710938 C 15.238281 16.101563 15.488281 16.578125 15.558594 17.148438 L 15.640625 17.800781 C 15.699219 17.949219 15.789063 18.03125 15.890625 18.03125 L 17.199219 18.03125 C 17.628906 18.03125 18 18.191406 18.320313 18.5 C 18.640625 18.808594 18.789063 19.179688 18.789063 19.621094 C 18.789063 20.070313 18.628906 20.449219 18.320313 20.769531 C 18.011719 21.089844 17.628906 21.25 17.199219 21.25 L 10.351563 21.25 C 9.898438 21.25 9.519531 21.089844 9.210938 20.769531 C 8.898438 20.449219 8.75 20.058594 8.75 19.609375 Z M 13.179688 13.21875 C 13.25 12.128906 13.671875 11.210938 14.449219 10.460938 C 15.230469 9.71875 16.160156 9.339844 17.25 9.339844 C 18.359375 9.339844 19.308594 9.738281 20.089844 10.53125 C 20.871094 11.320313 21.261719 12.289063 21.261719 13.421875 C 21.261719 14.121094 21.089844 14.769531 20.75 15.371094 C 20.410156 15.96875 19.949219 16.449219 19.371094 16.820313 C 18.78125 16.328125 18.101563 16.089844 17.339844 16.089844 C 17.050781 15.210938 16.53125 14.519531 15.800781 14 C 15.070313 13.480469 14.238281 13.21875 13.308594 13.21875 Z M 13.179688 13.21875 "/>
</g>
</svg>

<?xml version="1.0" encoding="utf-8"?>
<!-- Generator: Adobe Illustrator 22.0.1, SVG Export Plug-In . SVG Version: 6.00 Build 0)  -->
<svg version="1.1" id="Layer_1" xmlns="http://www.w3.org/2000/svg" xmlns:xlink="http://www.w3.org/1999/xlink" x="0px" y="0px"
	 viewBox="0 0 30 30" style="enable-background:new 0 0 30 30;" xml:space="preserve">
<path d="M6.77,19.61c0,0.97,0.35,1.81,1.06,2.52c0.71,0.71,1.55,1.06,2.52,1.06h6.85c0.97,0,1.8-0.35,2.49-1.05
	c0.69-0.7,1.04-1.54,1.04-2.53c0-0.48-0.07-0.89-0.21-1.23c0.83-0.53,1.49-1.24,1.97-2.12c0.48-0.88,0.73-1.83,0.73-2.84
	c0-0.81-0.16-1.59-0.47-2.33c-0.32-0.74-0.74-1.38-1.28-1.91S20.3,8.22,19.56,7.9c-0.74-0.32-1.51-0.48-2.32-0.48
	c-1.09,0-2.1,0.27-3.02,0.81s-1.65,1.27-2.18,2.18c-0.53,0.92-0.79,1.92-0.79,3.01v0.34c-1.01,0.57-1.67,1.41-1.99,2.49
	c-0.76,0.24-1.36,0.66-1.81,1.27C7,18.13,6.77,18.83,6.77,19.61z M8.75,19.61c0-0.42,0.13-0.78,0.4-1.08
	c0.27-0.3,0.61-0.47,1.02-0.51l0.63-0.08c0.12,0,0.19-0.08,0.19-0.23l0.1-0.56c0.07-0.58,0.31-1.06,0.73-1.44
	c0.42-0.39,0.91-0.58,1.48-0.58c0.58,0,1.09,0.19,1.51,0.58c0.43,0.39,0.68,0.87,0.75,1.44l0.08,0.65c0.06,0.15,0.15,0.23,0.25,0.23
	h1.31c0.43,0,0.8,0.16,1.12,0.47c0.32,0.31,0.47,0.68,0.47,1.12c0,0.45-0.16,0.83-0.47,1.15s-0.69,0.48-1.12,0.48h-6.85
	c-0.45,0-0.83-0.16-1.14-0.48S8.75,20.06,8.75,19.61z M13.18,13.22c0.07-1.09,0.49-2.01,1.27-2.76c0.78-0.74,1.71-1.12,2.8-1.12
	c1.11,0,2.06,0.4,2.84,1.19c0.78,0.79,1.17,1.76,1.17,2.89c0,0.7-0.17,1.35-0.51,1.95c-0.34,0.6-0.8,1.08-1.38,1.45
	c-0.59-0.49-1.27-0.73-2.03-0.73c-0.29-0.88-0.81-1.57-1.54-2.09c-0.73-0.52-1.56-0.78-2.49-0.78H13.18z"/>
</svg>
